icon-themes/breeze_svg/cmd/sc_pasteonlyformula.svg

<svg viewBox="0 0 16 16" xmlns="http://www.w3.org/2000/svg"><g fill="#4d4d4d"><path d="m5 2v1h-2v11h4 1 4 1v-1-4-6h-2v-1zm-1 2h1 6 1v5 4h-4-1-3z"/><path d="m9 5c-1.10457 0-2 .89543-2 2h-1v1h1v4h1v-4h1v-1h-1c0-.55228.44772-1 1-1h1v-1z"/></g></svg>

<svg viewBox="0 0 16 16" xmlns="http://www.w3.org/2000/svg">
   <path
   style="fill:#4d4d4d"
   d="M 5,2 V 3 H 3 v 11 h 4 1 4 1 V 13 9 3 H 11 V 2 Z M 4,4 h 1 6 1 v 5 4 H 8 7 4 Z"
   />
<path
   style="fill:#4d4d4d"
   d="M 9,5 C 7.89543,5 7,5.89543 7,7 V 7 H 6 v 1 h 1 v 4 H 8 V 8 H 9 V 7 H 8 V 7 C 8,6.44772 8.44772,6 9,6 h 1 V 5 Z"
   />
</svg>
